src/icons/account-logout.svg

<svg xmlns="http://www.w3.org/2000/svg" width="8" height="8" viewBox="0 0 8 8">
  <path d="M3 0v1h4v5h-4v1h5v-7h-5zm-1 2l-2 1.5 2 1.5v-1h4v-1h-4v-1z" />
</svg>

<svg xmlns="http://www.w3.org/2000/svg" viewBox="0 0 8 8"><path d="M3 0v1h4v5H3v1h5V0H3zM2 2L0 3.5 2 5V4h4V3H2V2z"/></svg>
